!!!!SEGMENT: pl-kk--kk-i-471--003-pc1_renner-josef--missa-tertia-credo-pc1.krn
!!!cenid: 18xx:1442b
!!!COM: Renner, Josef
!!!COM-rismID: pe41020479
!!!CDT:
!!!CNT:
!!!OPR: Missa tertia
!!!OTL: Credo [post correcturam]
!!!OMV: 003
!!!PDT:
!!!AGN: Sacred; Mass
!!!SMS-siglum: PL-Kk
!!!SMS-shelfmark: Kk.I.471
!!!SMS-shelfwork: 001-003 M
!!!SMS-variant: Partytura PL-Kk Kk.I.471:0002-0010
!!!SMS-altvar: Partytura PL-Kk Kk.I.471:0013-0020; Tenor I PL-Kk Kk.I.471:0024-0027; Tenor I PL-Kk Kk.I.471:0030-0033; Tenor II PL-Kk Kk.I.471:0037-0040; Tenor II PL-Kk Kk.I.471:0043-0046; Bas I PL-Kk Kk.I.471:0050-0053; Bas I PL-Kk Kk.I.471:0056-0059; Bas II PL-Kk Kk.I.471:0063-0066; Bas II PL-Kk Kk.I.471:0070-0073
!!!NIFC-rismSourceID: 1001140695
!!!NIFC-islandoraID: pl-kk:13873
!!!URL-pdf-islandora: https://repozytorium.nifc.pl/islandora/object/pl-kk%3A13873/datastream/PDF/view
!!!URL-scan: https://polish.musicsources.pl/pl/lokalizacje/galeria/rekopisy/6078 @EN{Scan on Polish Music Herritage in Open Access Website} @PL{Skany w portalu Dziedzictwo Muzyki Polskiej w otwartym dostępie}
!!!ONB-nifc: UWAGA: na podstawie partytury. Proszę uzupełnić pola !!!SMS dot. partytury i głosów. Uwaga: części Mszy: 1. Kyrie, 2. Gloria, 3. Credo, 4. Sanctus, 5. Benedictus, 6. Agnus Dei
!!!AIN: 3 empty
!!!key:
**kern	**dynam	**kern	**dynam	**dynam	**kern	**text	**dynam	**kern	**text	**dynam
*part3	*part3	*part3	*part3	*part3	*part2	*part2	*part2	*part1	*part1	*part1
*staff4	*	*staff3	*	*	*staff2	*staff2	*	*staff1	*staff1	*
*Iempty	*	*Iempty	*	*	*Iempty	*	*	*Iempty	*	*
*I"	*	*I"	*	*	*I"	*	*	*I"	*	*
*clefF4	*	*clefG2	*	*	*clefF4	*	*	*clefG2	*	*
*k[b-]	*	*k[b-]	*	*	*k[b-]	*	*	*k[b-]	*	*
*F:	*	*F:	*	*	*F:	*	*	*F:	*	*
*M4/4	*	*M4/4	*	*	*M4/4	*	*	*M4/4	*	*
*met(c)	*	*met(c)	*	*	*met(c)	*	*	*met(c)	*	*
=1	=1	=1	=1	=1	=1	=1	=1	=1	=1	=1
*^	*	*^	*	*	*^	*	*	*^	*	*
*	*	*	*	*	*	*	*	*	*	*	*	*	*^	*
*	*	*	*	*	*	*	*	*	*	*	*	*	*	*above	*
!	!	!	!	!	!LO:DY:rj:b	!	!	!	!	!	!	!	!	!	!
2c/	2F\	.	2a/	2f\	p	.	2ryy	4F\	.	.	4f/	4f\	Pa-	Pa-	.
.	.	.	.	.	.	.	.	4F\	.	.	8a/	8f\	-trem	-trem	.
.	.	.	.	.	.	.	.	.	.	.	8b-/	8ryy	.	.	.
2r	2ryy	.	2r	2ryy	.	.	8r	8ryy	.	.	4cc/	8r	.	.	.
.	.	.	.	.	.	.	8F/	8F\	.	.	.	8a\	o-	o-	.
.	.	.	.	.	.	.	8F/	8F\	.	.	8dd/L	8a\	-mni-	-mni-	.
.	.	.	.	.	.	.	8G/	8E\	.	.	8ee/J	8cc\	-po-	-po-	.
=2	=2	=2	=2	=2	=2	=2	=2	=2	=2	=2	=2	=2	=2	=2	=2
2d/	2D\	.	2a/	2f\	.	.	4A/	4D\	.	.	4ff/	4dd\	-ten-	-ten-	.
.	.	.	.	.	.	.	4F/	4D\	.	.	8dd/	4a\	-tem	-tem	.
.	.	.	.	.	.	.	.	.	.	.	8ee/	.	.	fac-	.
2r	2ryy	.	2r	2ryy	.	.	8r	8ryy	.	.	4ff/	8r	.	-to-	.
.	.	.	.	.	.	.	8F/	8D\	.	.	.	8a\	fac-	.	.
.	.	.	.	.	.	.	8F/	8D\	.	.	4dd/	8a\	-to-	-rem	.
.	.	.	.	.	.	.	8F/	8D\	.	.	.	8a\	-rem	.	.
*	*	*	*	*	*	*	*	*	*	*	*	*	*v	*v	*
=3	=3	=3	=3	=3	=3	=3	=3	=3	=3	=3	=3	=3	=3	=3
2d/	2BB-\	.	2b-/	2f\	.	.	2F/	2BB-\	.	.	2dd/	2b-\	coe-	.
2c/	2C\	.	2g/	2e\	.	.	4E/	4C\	.	.	4cc/	4g\	-li	.
.	.	.	.	.	.	.	4E/	4C\	.	.	4g/	4g\	et	.
=4	=4	=4	=4	=4	=4	=4	=4	=4	=4	=4	=4	=4	=4	=4
2A/	2D\	.	2f/	2d\	.	.	2D/	2D\	.	.	2f/	2f\	ter-	.
2c/	2C\	.	2g/	2e\	.	.	2E/	2C\	.	.	2g/	2g\	-rae	.
*v	*v	*	*	*	*	*	*	*	*	*	*	*	*	*
*	*	*v	*v	*	*	*	*	*	*	*	*	*	*
=5	=5	=5	=5	=5	=5	=5	=5	=5	=5	=5	=5	=5
1r	.	1r	.	.	4F/	4F\	.	.	4a/	4f\	vi-	.
.	.	.	.	.	4A/	4F\	.	.	4cc/	4a\	-si-	.
.	.	.	.	.	4G/	4E\	.	.	4cc/	4g\	-bi-	.
.	.	.	.	.	8F/	8D\	.	.	8dd/	8a\	-li-	.
.	.	.	.	.	8G/	8C\	.	.	8ee/	8cc\	-um	.
=6	=6	=6	=6	=6	=6	=6	=6	=6	=6	=6	=6	=6
1r	.	1r	.	.	4A/	4F\	.	.	4ff/	4cc\	om-	.
.	.	.	.	.	4A/	4F\	.	.	4cc/	4cc\	-ni-	.
.	.	.	.	.	2A/	2F\	.	.	2cc/	2cc\	-um	.
!!LO:LB:g=original
=7	=7	=7	=7	=7	=7	=7	=7	=7	=7	=7	=7	=7
*^	*	*^	*	*	*	*	*	*	*	*	*	*
2ryy	4G\	.	4b-/ 4g/ 4d/	4ryy	.	.	4G/	4G\	.	.	4b-/	4b-\	et	.
.	4F\	.	4cc/ 4a/	4f\	.	.	4A/	4F\	.	.	4cc/	4a\	in	.
4f/	4D\	.	4dd/	8a\L	.	.	4F/	4D\	.	.	4dd/	(>8a\L	vi-	.
.	.	.	.	8b-\J	.	.	.	.	.	.	.	8b-\J)	.	.
4ryy	4C\	.	4ee/ 4cc/ 4g/	4ryy	.	.	4G/	4C\	.	.	4ee/	4cc\	-si-	.
*v	*v	*	*	*	*	*	*	*	*	*	*	*	*	*
=8	=8	=8	=8	=8	=8	=8	=8	=8	=8	=8	=8	=8	=8
2BB-\	.	2ff/ 2dd/	1g\	.	.	2G/	2BB-\	.	.	2ff/	2dd\	-bi-	.
2C\	.	2ee/ 2cc/	.	.	.	2G/ 2C/	2C\	.	.	2ee/	2cc\	-li-	.
*	*	*v	*v	*	*	*	*	*	*	*	*	*	*
=9	=9	=9	=9	=9	=9	=9	=9	=9	=9	=9	=9	=9
1FF/	.	1ff\ 1cc\ 1a\	.	.	1A/	1F\	.	.	1ff/	1cc\	-um.	.
=10	=10	=10	=10	=10	=10	=10	=10	=10	=10	=10	=10	=10
1r	.	1r	.	.	4F/	4F\	.	.	4cc/	4a\	Et	.
.	.	.	.	.	4F/	4F\	.	.	4cc/	4a\	in	.
.	.	.	.	.	4F/	4BB-\	.	.	4dd/	4b-\	u-	.
.	.	.	.	.	4D/	4BB-\	.	.	4b-/	4f\	-num	.
=11	=11	=11	=11	=11	=11	=11	=11	=11	=11	=11	=11	=11
1r	.	1r	.	.	4F/	4D\	.	.	4a/	4f\	Do-	.
.	.	.	.	.	4F/	4D\	.	.	4b-/	4f\	-mi-	.
!	!	!	!	!	!	!LO:N:vis=1	!	!	!	!	!	!
.	.	.	.	.	2C\	2E/	.	.	2cc/	2g\	-num	.
=12	=12	=12	=12	=12	=12	=12	=12	=12	=12	=12	=12	=12
*^	*	*^	*	*	*	*	*	*	*	*	*	*
!	!	!	!	!	!LO:DY:rj:a	!	!	!	!	!	!	!	!	!LO:DY:rj:a
2d/	2G\	.	2b-/	2g\	f	.	2G/	2G\	.	.	2dd/	2bn\	Je-	f
2e/	2C\	.	2cc/	2g\	.	.	2G/	2C\	.	.	2ee/	2cc\	-sum	.
=13	=13	=13	=13	=13	=13	=13	=13	=13	=13	=13	=13	=13	=13	=13
*	*^	*	*	*	*	*	*	*	*	*	*	*	*	*
1F/	2FF\	2f/	.	1cc/	2a\	.	.	2A/	2F\	.	.	2ff/	2cc\	Chri-	.
.	2C\	2e/	.	.	2g\	.	.	2G/	2C\	.	.	2ee/	2cc\	-stum	.
*	*v	*v	*	*	*	*	*	*	*	*	*	*	*	*	*
=14	=14	=14	=14	=14	=14	=14	=14	=14	=14	=14	=14	=14	=14	=14
2Bn/	2GG\	.	2dd/	2g\	.	.	2G/	2G\	.	.	2dd/	2bn\	Fi-	.
2c/	2C\	.	2ee/	2ryy	.	.	4G/	4C\	.	.	4ee/	4cc\	-li-	.
.	.	.	.	.	.	.	4G/	4C\	.	.	4ee/	4cc\	-um	.
*	*	*	*v	*v	*	*	*	*	*	*	*	*	*	*
=15	=15	=15	=15	=15	=15	=15	=15	=15	=15	=15	=15	=15	=15
1c/ 1F/	2FF\	.	2ff/ 2a/	.	.	2A/	2F\	.	.	2ff/	2cc\	De-	.
.	2C\	.	2ee/ 2g/	.	.	2G/	2C\	.	.	2ee/	2cc\	-i	.
!!LO:PB:g=original
=16	=16	=16	=16	=16	=16	=16	=16	=16	=16	=16	=16	=16	=16
*	*	*	*^	*	*	*	*	*	*	*	*	*	*
4A/	4D\	.	2dd/	2.f\	.	.	4F/	4D\	.	.	4dd/	4a\	u-	.
4B-/	4BB-\	.	.	.	.	.	4F/	4BB-\	.	.	4dd/	4b-\	-ni	.
2G/	2C\	.	2cc/	.	.	.	4F/	4C\	.	.	4cc/	4g\	ge-	.
.	.	.	.	4e\	.	.	4E/	4C\	.	.	4cc/	4g\	-ni-	.
=17	=17	=17	=17	=17	=17	=17	=17	=17	=17	=17	=17	=17	=17	=17
1A/ 1F/	1FF\	.	1cc/	1f\	.	.	2F/	2FF\	.	.	1cc/	1a\	-tum	.
.	.	.	.	.	.	.	[2A/	2A\	Et	.	.	.	.	.
*	*	*	*	*	*	*	*	*	*	*	*v	*v	*	*
=18	=18	=18	=18	=18	=18	=18	=18	=18	=18	=18	=18	=18	=18
4A/	4F\	.	2cc/	4f\	.	.	4A/]	4A\	.	.	1r	.	.
4G/	4C\	.	.	4e\	.	.	4G/	4G\	ex	.	.	.	.
2B-/	2BB-\	.	2dd/	2f\	.	.	4.B-/	4.B-\	pa-	.	.	.	.
.	.	.	.	.	.	.	8B-/	8B-\	-tre	.	.	.	.
=19	=19	=19	=19	=19	=19	=19	=19	=19	=19	=19	=19	=19	=19
4A/	4F\	.	2cc/	4f\	.	.	((8A/L	8A\L	na-	.	1r	.	.
.	.	.	.	.	.	.	8F/J)	8F\J	.	.	.	.	.
4G/	4C\	.	.	4e\	.	.	4G/)	4G\	.	.	.	.	.
2F/	2D\	.	2a/	2f\	.	.	2F/	2F\	-tum	.	.	.	.
=20	=20	=20	=20	=20	=20	=20	=20	=20	=20	=20	=20	=20	=20
2E/	2AA\	.	2a/	2c\	.	.	4A/	4A\	an-	.	1ryy	.	.
.	.	.	.	.	.	.	4A/	4A\	-te	.	.	.	.
!	!	!	!	!LO:N:vis=1	!	!	!	!	!	!	!	!	!
2A/	2FF\	.	4.cc/	2f\	.	.	4.c/	4.c\	om-	.	.	.	.
.	.	.	8dd/	.	.	.	8d/	8d\	-ni-	.	.	.	.
=21	=21	=21	=21	=21	=21	=21	=21	=21	=21	=21	=21	=21	=21
*	*^	*	*	*	*	*	*	*	*	*	*	*	*
2.A/	2.FF\	2.F\	.	2cc/	2.f\	.	.	2c/	2c\	-a	.	1ryy	.	.
.	.	.	.	2cc/	.	.	.	(8F/L	(8F\L	sae-	.	.	.	.
.	.	.	.	.	.	.	.	8A/J)	8A\J)	.	.	.	.	.
4G/	4C\	4ryy	.	.	4e\	.	.	4G/	4G\	-cu-	.	.	.	.
=22	=22	=22	=22	=22	=22	=22	=22	=22	=22	=22	=22	=22	=22	=22
*	*	*	*	*	*	*	*	*	*	*	*	*^	*	*
2A/	2FF\	2F\	.	2cc/	2f\	.	.	2F/	2F\	-la	.	2cc/	2cc\	De-	.
2ryy	2ryy	2r	.	2r	2ryy	.	.	2r	2ryy	.	.	4cc/	4cc\	-um	.
.	.	.	.	.	.	.	.	.	.	.	.	4cc/	4cc\	de	.
*	*v	*v	*	*	*	*	*	*v	*v	*	*	*	*	*	*
=23	=23	=23	=23	=23	=23	=23	=23	=23	=23	=23	=23	=23	=23
2A/	1F\	.	2f/	2c\	.	.	1r	.	.	2a/	2a\	De-	.
2c/	.	.	2a/	2f\	.	.	.	.	.	2f/	2f/	-o	.
*v	*v	*	*	*	*	*	*	*	*	*	*	*	*
*	*	*v	*v	*	*	*	*	*	*	*	*	*
!!LO:LB:g=original
=24	=24	=24	=24	=24	=24	=24	=24	=24	=24	=24	=24
2D\	.	2dd/ 2a/ 2f/	.	.	1r	.	.	2f/	2f\	lu-	.
2C\	.	2ee/ 2cc/ 2g/	.	.	.	.	.	4g/	4g\	-men	.
.	.	.	.	.	.	.	.	4g/	4g\	de	.
=25	=25	=25	=25	=25	=25	=25	=25	=25	=25	=25	=25
1FF/	.	2ff/ 2cc/ 2a/	.	.	1r	.	.	4.a/	4.a\	lu-	.
.	.	.	.	.	.	.	.	8g/	8g\	-mi-	.
.	.	2ryy	.	.	.	.	.	2f/	2f\	-ne	.
=26	=26	=26	=26	=26	=26	=26	=26	=26	=26	=26	=26
*^	*	*^	*	*	*	*	*	*	*	*	*
2.A/	2.F\	.	1cc/	2.f\	.	.	1r	.	.	2.cc/	2.cc\	De-	.
4G/	4C\	.	.	4e\	.	.	.	.	.	4cc/	4cc\	-um	.
=27	=27	=27	=27	=27	=27	=27	=27	=27	=27	=27	=27	=27	=27
2B-/	2BB-\	.	2dd/	2f\	.	.	1r	.	.	2dd/	2dd\	ve-	.
[2c/	2F\	.	4cc/	2a\	.	.	.	.	.	4cc/	4cc\	-rum	.
.	.	.	4ff/	.	.	.	.	.	.	4ff/	4ff\	de	.
=28	=28	=28	=28	=28	=28	=28	=28	=28	=28	=28	=28	=28	=28
2c/_	2G\	.	4ee/	4g\	.	.	1r	.	.	4ee/	4ee\	De-	.
.	.	.	4cc/	4e\	.	.	.	.	.	4cc/	4cc\	-o	.
4c/]	2GG\	.	2dd/	2g\	.	.	.	.	.	2dd/	2dd\	ve-	.
4Bn/	.	.	.	.	.	.	.	.	.	.	.	.	.
=29	=29	=29	=29	=29	=29	=29	=29	=29	=29	=29	=29	=29	=29
4c/	2C\	.	2cc/	2e\	.	.	1r	.	.	1cc/	1cc\	-ro	.
4G/	.	.	.	.	.	.	.	.	.	.	.	.	.
4d/	4BB-X\	.	4dd/	4f\	.	.	.	.	.	.	.	.	.
4c/	4GG\	.	4ee/	4g\	.	.	.	.	.	.	.	.	.
=30	=30	=30	=30	=30	=30	=30	=30	=30	=30	=30	=30	=30	=30
*	*	*	*	*	*	*	*^	*	*	*	*	*	*
!LO:N:vis=1	!	!	!	!	!	!	!	!	!	!	!	!	!	!
2c/	2FF\	.	2ff/	2a\	.	.	4.A/	4.F\	.	.	4.ff/	4.cc\	Ge-	.
.	.	.	.	.	.	.	8A/	8F\	.	.	8ff/	8cc\	-ni-	.
2r	2r	.	2r	2ryy	.	.	4F/	4F\	.	.	4cc/	4a\	-tum	.
.	.	.	.	.	.	.	4G/	4E\	.	.	4cc/	4g\	non	.
*v	*v	*	*	*	*	*	*	*	*	*	*	*	*	*
*	*	*v	*v	*	*	*	*	*	*	*	*	*	*
=31	=31	=31	=31	=31	=31	=31	=31	=31	=31	=31	=31	=31
1r	.	1r	.	.	2F/	2F\	.	.	2a/	2a\	fac-	.
.	.	.	.	.	2E/	2C\	.	.	2cc/	2g\	-tum	.
=32	=32	=32	=32	=32	=32	=32	=32	=32	=32	=32	=32	=32
1r	.	1r	.	.	4F/	4F\	.	.	4a/	4f\	con-	.
.	.	.	.	.	4A/	4F\	.	.	4a/	4a\	-sub-	.
.	.	.	.	.	4G/	4E\	.	.	4cc/	4g\	-stan-	.
.	.	.	.	.	4B-/	4G\	.	.	8dd/L	4b-\	-ti-	.
.	.	.	.	.	.	.	.	.	8ee/J	.	.	.
!!LO:LB:g=original
=33	=33	=33	=33	=33	=33	=33	=33	=33	=33	=33	=33	=33
1r	.	1r	.	.	2A/	2F\	.	.	2ff/	2cc\	-a-	.
.	.	.	.	.	2G/	2E\	.	.	2cc/	2cc\	-lem	.
=34	=34	=34	=34	=34	=34	=34	=34	=34	=34	=34	=34	=34
1r	.	1r	.	.	2G/	2G\	.	.	2dd/	2bn\	Pa-	.
.	.	.	.	.	2G/	2C\	.	.	2ee/	2cc\	-tri	.
=35	=35	=35	=35	=35	=35	=35	=35	=35	=35	=35	=35	=35
1r	.	1r	.	.	4G/	4G\	.	.	4dd/	4bn\	per-	.
.	.	.	.	.	4G/	4E\	.	.	4ee/	4cc\	-quem	.
.	.	.	.	.	4A/	4D\	.	.	4ff/	4dd\	o-	.
.	.	.	.	.	8G/	8E\	.	.	8ee/	8cc\	-mni-	.
.	.	.	.	.	8A/	8F\	.	.	8ee/	8cc\	-a	.
=36	=36	=36	=36	=36	=36	=36	=36	=36	=36	=36	=36	=36
1r	.	1r	.	.	2G/	2G\	.	.	2ee/	2cc\	fa-	.
.	.	.	.	.	4G/	2GG\	.	.	2dd/	2bn\	-cta	.
.	.	.	.	.	4F/	.	.	.	.	.	.	.
=37	=37	=37	=37	=37	=37	=37	=37	=37	=37	=37	=37	=37
*^	*	*	*	*	*	*	*	*	*	*	*	*
4r	4ryy	.	4r	.	.	2E/	2C\	.	.	2cc/	2g\	sunt.	.
4G/	4G\ 4C\	.	4cc/ 4e/	.	.	.	.	.	.	.	.	.	.
2B-/	4B-\ 4BB-\	.	4dd/ 4f/	.	.	4r	4r	.	.	4r	4ryy	.	.
.	4GG\	.	4ee/ 4g/	.	.	4c\	4c\	.	.	4cc/	4cc\	Qui	.
=38	=38	=38	=38	=38	=38	=38	=38	=38	=38	=38	=38	=38	=38
2c/	2FF\	.	2ff/ 2a/	.	.	2c/	2c\	.	.	2cc/	2cc\	prop-	.
2r	2ryy	.	2r	.	.	4A/	4A\	.	.	4a/	4a/	-ter	.
.	.	.	.	.	.	4A/	4A\	.	.	4a/	4a/	nos	.
=39	=39	=39	=39	=39	=39	=39	=39	=39	=39	=39	=39	=39	=39
*	*	*	*^	*	*	*	*	*	*	*	*	*	*
1A/	1F\	.	4.cc/	1f\	.	.	4.c/	4.c\	.	.	4.cc/	4.cc\	ho-	.
.	.	.	8dd/	.	.	.	8d/	8d\	.	.	8dd/	8dd\	-mi-	.
.	.	.	2cc/	.	.	.	4c/	4c\	.	.	4cc/	4cc\	-nes	.
.	.	.	.	.	.	.	4F/	4F\	.	.	4f/	4f\	et	.
=40	=40	=40	=40	=40	=40	=40	=40	=40	=40	=40	=40	=40	=40	=40
2.A/	2.D\	.	4dd/	2.f\	.	.	4F/	4F\	.	.	4f/	4f\	pro-	.
.	.	.	4a/	.	.	.	4F\	4F\	.	.	4f/	4f\	-pter	.
.	.	.	4f/	.	.	.	4F/	4F\	.	.	4f/	4f\	nos-	.
4c/	4C\	.	8g/L	4ryy	.	.	8G/	8G\	.	.	8g/	8g\	-tram	.
.	.	.	8a/J	.	.	.	8A/	8A\	.	.	8a/	8a\	sa-	.
!!LO:PB:g=original
=41	=41	=41	=41	=41	=41	=41	=41	=41	=41	=41	=41	=41	=41	=41
4d/	4BB-\	.	4b-/	2.f\	.	.	4B-/	4B-\	.	.	(4b-/	4b-\	-lu-	.
4A/	4FF\	.	4cc/	.	.	.	4c/	4c\	.	.	4cc/)	4cc\	.	.
4A/	4FF\	.	4cc/	.	.	.	4c/	4c\	.	.	4cc/	4cc\	-tem	.
4B-/	4BB-\	.	4dd/	4f\	.	.	4B-/	4B-\	.	.	4dd/	4dd\	de-	.
=42	=42	=42	=42	=42	=42	=42	=42	=42	=42	=42	=42	=42	=42	=42
1c/	2FF\	.	2ff/	2a\	.	.	2A/	2F\	.	.	2ff/	2cc\	-scen-	.
.	4C\	.	4ee/	2g\	.	.	4G/	4C\	.	.	4ee/	4cc\	-dit	.
.	4EE\	.	4cc/	.	.	.	4G/	4E\	.	.	4cc/	4cc\	de	.
=43	=43	=43	=43	=43	=43	=43	=43	=43	=43	=43	=43	=43	=43	=43
2c/	2FF\	.	1dd/	2a\	.	.	2A/	2F\	.	.	1dd/	(2cc\	coe-	.
2Bn/	2GG\	.	.	4g\	.	.	2G/	2G\	.	.	.	2bn\)	.	.
.	.	.	.	4f\	.	.	.	.	.	.	.	.	.	.
=44	=44	=44	=44	=44	=44	=44	=44	=44	=44	=44	=44	=44	=44	=44
1c/	1C\	.	1cc/	1e\	.	.	1E/	1C\	.	.	1cc/	1g\	-lis.	.
*v	*v	*	*	*	*	*	*	*	*	*	*	*	*	*
=45||	=45||	=45||	=45||	=45||	=45||	=45||	=45||	=45||	=45||	=45||	=45||	=45||	=45||
!	!	!LO:TX:t=P:problem=w taktach 45-64 głos pierwszy dopisany ołówkiem	!	!	!	!	!	!	!	!LO:TX:a:t=Adagio solo	!	!	!
1r	.	4r	1r	.	.	2F/	2F\	.	.	2cc/	2a\	Et	.
.	.	4a/	.	.	.	.	.	.	.	.	.	.	.
.	.	8g/L	.	.	.	4G/	4E\	.	.	4cc/	4g\	in	.
.	.	8c/	.	.	.	.	.	.	.	.	.	.	.
.	.	8e/	.	.	.	4G/	4E\	.	.	4cc/	4g\	car-	.
.	.	8g/J	.	.	.	.	.	.	.	.	.	.	.
=46	=46	=46	=46	=46	=46	=46	=46	=46	=46	=46	=46	=46	=46
1r	.	8a/L	1r	.	.	2F/	2D\	.	.	2dd/	4a\	-na-	.
.	.	8f/	.	.	.	.	.	.	.	.	.	.	.
.	.	8a/	.	.	.	.	.	.	.	.	4bn\	.	.
.	.	8bn/J	.	.	.	.	.	.	.	.	.	.	.
.	.	8cc/L	.	.	.	2G/	2C\	.	.	2ee/	2cc\	-tus	.
.	.	8ee/	.	.	.	.	.	.	.	.	.	.	.
.	.	8gg/	.	.	.	.	.	.	.	.	.	.	.
.	.	8ee/J	.	.	.	.	.	.	.	.	.	.	.
=47	=47	=47	=47	=47	=47	=47	=47	=47	=47	=47	=47	=47	=47
1r	.	4ff/	1r	.	.	2A/	4FF\	.	.	2ff/	2cc\	est	.
.	.	4ryy	.	.	.	.	4C\	.	.	.	.	.	.
.	.	2ryy	.	.	.	4r	4F\	.	.	4r	4r	.	.
.	.	.	.	.	.	4ryy	8E\	.	.	4cc/	4cc\	de	.
.	.	.	.	.	.	.	8E\	.	.	.	.	.	.
=48	=48	=48	=48	=48	=48	=48	=48	=48	=48	=48	=48	=48	=48
1r	.	8d/L	1r	.	.	4A/	2D\	.	.	4ff/	4dd\	Spi-	.
.	.	8e/J	.	.	.	.	.	.	.	.	.	.	.
.	.	4f/	.	.	.	8A/	.	.	.	8ff/	8dd\	-ri-	.
.	.	.	.	.	.	8A/	.	.	.	8ff/	8cc\	-tu	.
.	.	4a/	.	.	.	4A/	2E\	.	.	2ee/	2bn\	san-	.
.	.	4bn/	.	.	.	4G#X/	.	.	.	.	.	.	.
*	*	*v	*v	*	*	*	*	*	*	*	*	*	*
!!LO:LB:g=original
=49	=49	=49	=49	=49	=49	=49	=49	=49	=49	=49	=49	=49
1ryy	.	8cc/L	.	.	2A/	2AA\	.	.	2ee/	2cc\	-cto	.
.	.	8dd/	.	.	.	.	.	.	.	.	.	.
.	.	8ee/	.	.	.	.	.	.	.	.	.	.
.	.	8cc/J	.	.	.	.	.	.	.	.	.	.
!	!	!	!	!	!	!	!	!	!	!	!	!LO:DY:a
.	.	4ff/	.	.	4A/	2r	.	.	4ff/	4cc\	ex	p
.	.	4ryy	.	.	4A/	.	.	.	4ff/	4cc\	Ma-	.
=50	=50	=50	=50	=50	=50	=50	=50	=50	=50	=50	=50	=50
1ryy	.	2r	.	.	8G/L	2r	.	.	(8ee/L	(8b-X\L	-ri-	.
.	.	.	.	.	8F/J	.	.	.	8dd/J)	8a\J)	.	.
.	.	.	.	.	4E/	.	.	.	4cc/	4g\	-a	.
!	!	!	!	!	!	!	!	!	!	!	!	!LO:DY:a
.	.	.	.	.	.	.	.	.	.	.	.	pp
.	.	4r	.	.	4F/	2D\	.	.	4dd/	4a\	Vir-	.
.	.	4f/	.	.	4F/	.	.	.	4dd/	4bn\	-gi-	.
=51	=51	=51	=51	=51	=51	=51	=51	=51	=51	=51	=51	=51
1ryy	.	4g/	.	.	2G/	2C\	.	.	2ee/	2cc\	-ne	.
.	.	8cc/L	.	.	.	.	.	.	.	.	.	.
.	.	8dd/J	.	.	.	.	.	.	.	.	.	.
.	.	4ee/	.	.	4ryy	2C\	.	.	4r	4ryy	.	.
!	!	!	!	!	!	!	!	!	!	!	!	!LO:DY:a
.	.	.	.	.	.	.	.	.	.	.	.	pp
.	.	4cc/	.	.	4G/	.	.	.	4ee/	4cc\	et	.
=52	=52	=52	=52	=52	=52	=52	=52	=52	=52	=52	=52	=52
1ryy	.	4dd/	.	.	4G/	2D\	.	.	4dd/	4cc\	ho-	.
.	.	8gg/L	.	.	4G/	.	.	.	4dd/	4bn\	-mo	.
.	.	8g/J	.	.	.	.	.	.	.	.	.	.
.	.	4a/	.	.	4G/	2D\	.	.	4dd/	4a\	fac-	.
.	.	8bn/L	.	.	4F#X/	.	.	.	4dd/	4a\	-tus	.
.	.	8cc/J	.	.	.	.	.	.	.	.	.	.
=53	=53	=53	=53	=53	=53	=53	=53	=53	=53	=53	=53	=53
!	!	!	!	!	!	!	!	!	!LO:TX:a:t=Piu mosso	!	!	!
2ryy	.	4bn/	.	.	2G/	2GG\	.	.	2.dd/	2.bn\	est	.
.	.	4ryy	.	.	.	.	.	.	.	.	.	.
!	!	!LO:TX:t=P:problem=w taktach 53-55 głos dopisany ołówkiem	!	!	!	!	!	!LO:DY:a	!	!	!	!
.	.	.	.	.	.	.	.	mf	.	.	.	.
*	*	*	*	*	*	*	*above	*	*	*	*	*
4G\	.	4ryy	.	.	4G/	2r	Cru-	.	.	.	.	.
4F\	.	8a/L	.	.	4Fn/	.	-ci-	.	4r	4ryy	.	.
.	.	8bn/J	.	.	.	.	.	.	.	.	.	.
=54	=54	=54	=54	=54	=54	=54	=54	=54	=54	=54	=54	=54
*	*	*	*	*	*	*	*	*	*	*	*^	*
*	*	*	*	*	*	*	*	*	*	*	*	*above	*
!	!	!	!	!	!	!	!	!	!LO:TX:a:t=Tutti	!	!	!	!LO:DY:a
2E\	.	8cc/L	.	.	2E/	1r	-fi-	.	2ryy	4cc\	Cru-	.	mf
.	.	8g/	.	.	.	.	.	.	.	.	.	.	.
.	.	8cc/	.	.	.	.	.	.	.	4b-\	-ci-	.	.
.	.	8b-X/J	.	.	.	.	.	.	.	.	.	.	.
2F\	.	4a/	.	.	2F/	.	-xus	.	4ff/	(2a\	-fi-	Cru-	.
.	.	8cc/L	.	.	.	.	.	.	4ff/	.	.	-ci-	.
.	.	8dd/J	.	.	.	.	.	.	.	.	.	.	.
=55	=55	=55	=55	=55	=55	=55	=55	=55	=55	=55	=55	=55	=55
*	*	*	*	*	*	*	*below	*	*	*	*	*	*
4C\	.	8ee-X/L	.	.	2G/	4C\	Cru-	.	2ee-X/	2cc\)	.	-fi-	.
.	.	8dd/	.	.	.	.	.	.	.	.	.	.	.
4ryy	.	8cc/	.	.	.	4C\	-ci-	.	.	.	.	.	.
.	.	8ee-/J	.	.	.	.	.	.	.	.	.	.	.
2ryy	.	8dd/L	.	.	2G/	4G\	-fi-	.	2dd/	2b-\	-xus	-xus	.
.	.	8b-/	.	.	.	.	.	.	.	.	.	.	.
.	.	8g/	.	.	.	4GG\	-xus	.	.	.	.	.	.
.	.	8a/J	.	.	.	.	.	.	.	.	.	.	.
*	*	*	*	*	*	*	*	*	*	*	*v	*v	*
!!LO:LB:g=original
=56	=56	=56	=56	=56	=56	=56	=56	=56	=56	=56	=56	=56
*	*	*^	*	*	*	*	*	*	*	*	*	*
1r	.	4b-/	1r	.	.	4G/	4G\	.	.	4dd/	4b-\	e-	.
.	.	2.ryy	.	.	.	4F/	4F\	.	.	4dd/	4a\	-ti-	.
.	.	.	.	.	.	2G/	4E-X\	.	.	4dd/	4g\	-am	.
.	.	.	.	.	.	.	8E-\L	.	.	4cc/	4g\	pro	.
.	.	.	.	.	.	.	8D\J	.	.	.	.	.	.
=57	=57	=57	=57	=57	=57	=57	=57	=57	=57	=57	=57	=57	=57
1r	.	4r	1r	.	.	2G/	2C\	.	.	2ee-X/	2cc/	no-	.
.	.	4g/	.	.	.	.	.	.	.	.	.	.	.
.	.	4b-/	.	.	.	4G/	4GG\	.	.	4dd/	4b-\	-bis	.
!	!	!	!	!	!	!	!	!	!	!	!	!	!LO:DY:a
.	.	.	.	.	.	.	.	.	.	.	.	.	pp
.	.	8g/L	.	.	.	4G/	4G\	pp	.	4dd/	4b-\	sub	.
.	.	8b-/J	.	.	.	.	.	.	.	.	.	.	.
=58	=58	=58	=58	=58	=58	=58	=58	=58	=58	=58	=58	=58	=58
1r	.	8a/L	1r	.	.	4.G/	4.D\	.	.	4.dd/	4.a\	Pon-	.
.	.	8d/	.	.	.	.	.	.	.	.	.	.	.
.	.	8f#X/	.	.	.	.	.	.	.	.	.	.	.
.	.	8a/J	.	.	.	8F#X/	8D\	.	.	8dd/	8a\	-ti-	.
.	.	4dd/	.	.	.	4F#/	4D\	.	.	4dd/	4a\	-o	.
.	.	8a/L	.	.	.	4F#/	4D\	.	.	4dd/	4a\	Pi-	.
.	.	8f#/J	.	.	.	.	.	.	.	.	.	.	.
=59	=59	=59	=59	=59	=59	=59	=59	=59	=59	=59	=59	=59	=59
1r	.	8g/L	1r	.	.	2G/	2G\	.	.	2dd/	2b-\	-la-	.
.	.	8d/	.	.	.	.	.	.	.	.	.	.	.
.	.	8g/	.	.	.	.	.	.	.	.	.	.	.
.	.	8b-/J	.	.	.	.	.	.	.	.	.	.	.
.	.	4dd/	.	.	.	2G/	2GG\	.	.	2dd/	2b-\	-to	.
.	.	8b-/L	.	.	.	.	.	.	.	.	.	.	.
.	.	8g/J	.	.	.	.	.	.	.	.	.	.	.
=60	=60	=60	=60	=60	=60	=60	=60	=60	=60	=60	=60	=60	=60
1r	.	8b-/L	1r	.	.	1G/	1E-X\	.	.	1ee-X/	1b-\	pas-	.
.	.	8ee-X/	.	.	.	.	.	.	.	.	.	.	.
.	.	8gg/	.	.	.	.	.	.	.	.	.	.	.
.	.	8ee-/J	.	.	.	.	.	.	.	.	.	.	.
.	.	[2bb-/	.	.	.	.	.	.	.	.	.	.	.
=61	=61	=61	=61	=61	=61	=61	=61	=61	=61	=61	=61	=61	=61
1r	.	4bb-/]	1r	.	.	1F/	1BB-\	.	.	1dd/	1b-\	-sus	.
.	.	8dd/L	.	.	.	.	.	.	.	.	.	.	.
.	.	8ff/J	.	.	.	.	.	.	.	.	.	.	.
.	.	[2b-/	.	.	.	.	.	.	.	.	.	.	.
=62	=62	=62	=62	=62	=62	=62	=62	=62	=62	=62	=62	=62	=62
1r	.	8b-/L]	1r	.	.	4F/	4BB-\	.	.	4dd/	4b-\	et	.
.	.	8dd/J	.	.	.	.	.	.	.	.	.	.	.
.	.	8d/L	.	.	.	4F/	4BB-\	.	.	4dd/	4a\	se-	.
.	.	8f/J	.	.	.	.	.	.	.	.	.	.	.
.	.	8g/L	.	.	.	4F/	4C\	.	.	4cc/	4g\	-pul-	.
.	.	8a/	.	.	.	.	.	.	.	.	.	.	.
.	.	8b-/	.	.	.	4En/	4C\	.	.	4cc/	4g\	-tus	.
.	.	8cc/J	.	.	.	.	.	.	.	.	.	.	.
=63	=63	=63	=63	=63	=63	=63	=63	=63	=63	=63	=63	=63	=63
1r	.	8a/L	1r	.	.	1F/	1FF\	.	.	1cc/	1a\	est.	.
.	.	8f/	.	.	.	.	.	.	.	.	.	.	.
.	.	8a/	.	.	.	.	.	.	.	.	.	.	.
.	.	8cc/J	.	.	.	.	.	.	.	.	.	.	.
.	.	2ff/	.	.	.	.	.	.	.	.	.	.	.
*	*	*	*	*	*	*v	*v	*	*	*	*	*	*
*	*	*	*	*	*	*	*	*	*v	*v	*	*
!!LO:PB:g=original
=64||	=64||	=64||	=64||	=64||	=64||	=64||	=64||	=64||	=64||	=64||	=64||
*^	*	*	*	*	*	*	*	*	*	*	*
2G/	2C\	.	2cc/ 2e/	2e\	.	.	4c\	Et	.	1r	.	.
.	.	.	.	.	.	.	8c\	re-	.	.	.	.
.	.	.	.	.	.	.	8c\	-sur-	.	.	.	.
4B-/	4BB-\	.	4dd/	4f\	.	.	4d\	-re-	.	.	.	.
4G/	4C\	.	4cc/	4e\	.	.	4c\	-xit	.	.	.	.
=65	=65	=65	=65	=65	=65	=65	=65	=65	=65	=65	=65	=65
*^	*	*	*	*	*	*	*	*	*	*	*	*
1c/	2F\	2FF\	.	4ff/	4a\	.	.	4c\	ter-	.	1r	.	.
.	.	.	.	8cc/L 8a/	4ryy	.	.	8A\	-ti-	.	.	.	.
.	.	.	.	8b-/J 8g/	.	.	.	8B-\	-a	.	.	.	.
.	2ryy	2F\	.	2a/ 2f/	2ryy	.	.	4c\	di-	.	.	.	.
.	.	.	.	.	.	.	.	8c\	-e	.	.	.	.
.	.	.	.	.	.	.	.	8F\	se-	.	.	.	.
*v	*v	*	*	*	*	*	*	*	*	*	*	*	*
=66	=66	=66	=66	=66	=66	=66	=66	=66	=66	=66	=66	=66
2ryy	4B-\ 4G\	.	4g/	2d\	.	.	4G\	-cun-	.	1r	.	.
.	4F\ 4D\	.	8a/L	.	.	.	8A\	-dum	.	.	.	.
.	.	.	8b-/J	.	.	.	8B-\	scrip-	.	.	.	.
8c/L	2C\	.	4cc/	4e\	.	.	2G\	-tu-	.	.	.	.
8B-/	.	.	.	.	.	.	.	.	.	.	.	.
8A/	.	.	8dd/L 8f/	8f\L	.	.	.	.	.	.	.	.
8G/J	.	.	8ee/J	8g\J	.	.	.	.	.	.	.	.
*	*	*	*v	*v	*	*	*	*	*	*	*	*
=67	=67	=67	=67	=67	=67	=67	=67	=67	=67	=67	=67
!	!	!	!	!	!	!	!	!	!	!	!LO:DY:a
4F/	2FF\	.	2ff/ 2a/	.	.	2F\	-ras	.	4f/	Et	f
4A/	.	.	.	.	.	.	.	.	4a/	as-	.
8c/L	2r	.	2ryy	.	.	2r	.	.	(>8cc/L	-cen-	.
8d/	.	.	.	.	.	.	.	.	8dd/J)	.	.
8e/	.	.	.	.	.	.	.	.	8ee/	-dit	.
8f/J	.	.	.	.	.	.	.	.	8ff/	in	.
=68	=68	=68	=68	=68	=68	=68	=68	=68	=68	=68	=68
*	*	*	*^	*	*	*	*	*	*	*	*
4e/	2GG\	.	2gg/ 2g/	4cc\	.	.	1r	.	.	(>(8ee/L	coe-	.
.	.	.	.	.	.	.	.	.	.	8cc/J)	.	.
4d/	.	.	.	4bn\	.	.	.	.	.	4dd/)	.	.
2c/	2C\	.	2ee/ 2g/	2ryy	.	.	.	.	.	2cc/	-lum	.
=69	=69	=69	=69	=69	=69	=69	=69	=69	=69	=69	=69	=69
*	*	*	*	*	*	*	*	*	*	*^	*	*
4c/	2C\	.	1cc/	1e\	.	.	1r	.	.	4cc/	2ryy	se-	.
4G/	.	.	.	.	.	.	.	.	.	8cc/	.	-det	.
.	.	.	.	.	.	.	.	.	.	8cc/	.	ad	.
4d/	2D\	.	.	.	.	.	.	.	.	8a/	4ryy	dex-	.
.	.	.	.	.	.	.	.	.	.	8a/	.	-te-	.
4B-/	.	.	.	.	.	.	.	.	.	4b-/	4b-\	-ram	.
*	*	*	*	*	*	*	*	*	*	*v	*v	*	*
!!LO:LB:g=original
=70	=70	=70	=70	=70	=70	=70	=70	=70	=70	=70	=70	=70
*	*	*	*	*	*	*	*^	*	*	*^	*	*
2A/	1C\	.	1cc/	2f\	.	.	2r	2.ryy	.	.	(4a/	2ryy	Pa-	.
.	.	.	.	.	.	.	.	.	.	.	4f/	.	.	.
4G/	.	.	.	2e\	.	.	4ryy	.	.	.	2g/)	2g\	.	.
4c/	.	.	.	.	.	.	4c/	4c\	Et	.	.	.	.	.
*	*	*	*	*	*	*	*v	*v	*	*	*v	*v	*	*
=71	=71	=71	=71	=71	=71	=71	=71	=71	=71	=71	=71	=71
1c/	2FF\	.	1a/	2f\	.	.	4.c\	i-	.	2f/	-tris	.
.	.	.	.	.	.	.	8c\	-te-	.	.	.	.
.	2AA\	.	.	2e\	.	.	4A\	-rum	.	2r	.	.
.	.	.	.	.	.	.	4A\	ven-	.	.	.	.
=72	=72	=72	=72	=72	=72	=72	=72	=72	=72	=72	=72	=72
2A/	2D\	.	2f/	2d\	.	.	4.F\	-tu-	.	1r	.	.
.	.	.	.	.	.	.	8F\	-rus	.	.	.	.
2c/	2C\	.	2g/	2e\	.	.	4G\	est.	.	.	.	.
.	.	.	.	.	.	.	4G\	Cum	.	.	.	.
=73	=73	=73	=73	=73	=73	=73	=73	=73	=73	=73	=73	=73
*	*	*	*	*	*	*	*	*	*	*^	*	*
!	!	!	!	!LO:N:vis=1	!	!	!	!	!	!	!	!	!
4.c/	2FF\	.	4.a/ 4.f/	2c/	.	.	4.A\	glo-	.	2r	2ryy	.	.
8B-/	.	.	8g/	.	.	.	8G\	-ri-	.	.	.	.	.
!	!	!	!	!	!	!	!	!	!	!	!	!	!LO:DY:a
4A/	2FF\	.	4f/	2f\	.	.	4F\	-a	.	4a/	4a\	ju-	f
4c/	.	.	4a/	.	.	.	4r	.	.	4a/	4ryy	-di-	.
*	*	*	*	*	*	*	*	*	*	*v	*v	*	*
=74	=74	=74	=74	=74	=74	=74	=74	=74	=74	=74	=74	=74
*^	*	*	*	*	*	*	*	*	*	*	*	*
4G\	4G/	4C\	.	4cc/	4e\	.	.	1r	.	.	(4cc\	-ca-	.
2.ryy	4B-/	4BB-\	.	4dd/	4f\	.	.	.	.	.	4dd\)	.	.
.	2c/	4F\	.	2cc/	4a\	.	.	.	.	.	2cc\	-re	.
.	.	4E\	.	.	4g\	.	.	.	.	.	.	.	.
*v	*v	*	*	*	*	*	*	*	*	*	*	*	*
=75	=75	=75	=75	=75	=75	=75	=75	=75	=75	=75	=75	=75
2d/	2d\ 2D\	.	2ff/	4a\	.	.	1r	.	.	2ff\	vi-	.
.	.	.	.	4bn\	.	.	.	.	.	.	.	.
2G/	2C\	.	4ee/	4cc\	.	.	.	.	.	4ee\	-vos	.
.	.	.	4cc/	4e\	.	.	.	.	.	4cc\	et	.
=76	=76	=76	=76	=76	=76	=76	=76	=76	=76	=76	=76	=76
2c/	1GG\	.	1dd/	1g\	.	.	1r	.	.	2.dd\	mor-	.
2Bn/	.	.	.	.	.	.	.	.	.	.	.	.
.	.	.	.	.	.	.	.	.	.	4dd\	-tu-	.
*v	*v	*	*	*	*	*	*	*	*	*	*	*
*	*	*v	*v	*	*	*	*	*	*	*	*
!!LO:LB:g=original
=77	=77	=77	=77	=77	=77	=77	=77	=77	=77	=77
*	*	*	*	*	*^	*	*	*	*	*
2c\ 2C\	.	2ee/ 2g/	.	.	4c/	4c\	Cu-	.	2cc/	-os	.
.	.	.	.	.	2.ryy	4c\	-jus	.	.	.	.
2A\ 2D\	.	2dd/ 2f/	.	.	.	4A\	re-	.	2r	.	.
.	.	.	.	.	.	8F\	-gni	.	.	.	.
.	.	.	.	.	.	8G\	non	.	.	.	.
=78	=78	=78	=78	=78	=78	=78	=78	=78	=78	=78	=78
2A\ 2AA\	.	1cc/ 1e/	.	.	1ryy	4A\	e-	.	1r	.	.
.	.	.	.	.	.	4A\	-rit	.	.	.	.
2G\ 2C\	.	.	.	.	.	2G\	fi-	.	.	.	.
=79	=79	=79	=79	=79	=79	=79	=79	=79	=79	=79	=79
*^	*	*^	*	*	*	*	*	*	*^	*	*
2.A/	2.FF/	.	2.cc/ 2.f/	2ryy	.	.	2ryy	2F\	-nis	.	2r	2ryy	.	.
!	!	!	!LO:TX:t=P:problem=w taktach 79-88 pierwszy głos dopisany ołówkiem	!	!	!	!	!	!	!	!	!	!	!LO:DY:a
.	.	.	.	.	.	.	.	.	.	.	.	.	.	f
.	.	.	.	[>2ff/	.	.	4A/	4F\	Et	.	4ff/	4cc\	.	.
4r	4ryy	.	4ra	.	.	.	4A/	4F\	in	.	4ff/	4cc\	.	.
*v	*v	*	*	*	*	*	*	*	*	*	*	*	*	*
=80	=80	=80	=80	=80	=80	=80	=80	=80	=80	=80	=80	=80	=80
1r	.	2ff/]	1r	.	.	2B-/	2BB-\	spi-	.	2ff/	2dd\	.	.
.	.	8ff/L	.	.	.	4F/	4BB-\	-ri-	.	4dd/	4b-\	.	.
.	.	8f/	.	.	.	.	.	.	.	.	.	.	.
.	.	8b-/	.	.	.	4F/	4BB-\	-tum	.	4dd/	4b-\	.	.
.	.	8dd/J	.	.	.	.	.	.	.	.	.	.	.
=81	=81	=81	=81	=81	=81	=81	=81	=81	=81	=81	=81	=81	=81
1r	.	4cc/	1r	.	.	2F/	2F\	san-	.	2cc/	2a\	.	.
.	.	4ryy	.	.	.	.	.	.	.	.	.	.	.
.	.	8ff/L	.	.	.	2F/	2F\	-ctum	.	2a/	2a\	.	.
.	.	8cc/	.	.	.	.	.	.	.	.	.	.	.
.	.	8a/	.	.	.	.	.	.	.	.	.	.	.
.	.	8f/J	.	.	.	.	.	.	.	.	.	.	.
=82	=82	=82	=82	=82	=82	=82	=82	=82	=82	=82	=82	=82	=82
1r	.	4a/	1r	.	.	2.F/	2.D\	Do-	.	2.dd/	2.a\	.	.
.	.	[4aa/	.	.	.	.	.	.	.	.	.	.	.
.	.	8aa/L]	.	.	.	.	.	.	.	.	.	.	.
.	.	8ff/	.	.	.	.	.	.	.	.	.	.	.
.	.	8dd/	.	.	.	4F/	4D\	-mi-	.	4dd/	4a\	.	.
.	.	8a/J	.	.	.	.	.	.	.	.	.	.	.
=83	=83	=83	=83	=83	=83	=83	=83	=83	=83	=83	=83	=83	=83
1r	.	8g/L	1r	.	.	4G/	4E\	-num	.	4cc/	4a\	.	.
.	.	8e/J	.	.	.	.	.	.	.	.	.	.	.
.	.	4f/	.	.	.	4F/	4D\	et	.	4dd/	4a\	.	.
.	.	8e/L	.	.	.	4G/	4C\	vi-	.	4ee/	4cc\	.	.
.	.	8g/	.	.	.	.	.	.	.	.	.	.	.
.	.	8cc/	.	.	.	8G/	8C\	-vi-	.	8ee/	8cc\	.	.
.	.	8ee/J	.	.	.	8G/	8C\	-fi-	.	8ee/	8cc\	.	.
=84	=84	=84	=84	=84	=84	=84	=84	=84	=84	=84	=84	=84	=84
1r	.	2ff/	1r	.	.	2A/	2F\	-can-	.	2ff/	2cc\	.	.
.	.	8ff/L	.	.	.	4F/	4F\	-tem	.	4cc/	4a\	.	.
.	.	8dd/	.	.	.	.	.	.	.	.	.	.	.
.	.	8cc/	.	.	.	4r	4ryy	.	.	4r	4r	.	.
.	.	8a/J	.	.	.	.	.	.	.	.	.	.	.
=85	=85	=85	=85	=85	=85	=85	=85	=85	=85	=85	=85	=85	=85
1r	.	4g/	1r	.	.	4G/	4E\	qui	.	4cc/	4g\	.	.
.	.	4r	.	.	.	4G/	4D\	ex	.	4dd/	4bn\	.	.
.	.	4b-/	.	.	.	2G/	2C\	Pa	.	2ee/	2cc\	.	.
!	!	!LO:N:vis=8	!	!	!	!	!	!	!	!	!	!	!
.	.	16cc/LL	.	.	.	.	.	.	.	.	.	.	.
!	!	!LO:N:vis=8	!	!	!	!	!	!	!	!	!	!	!
.	.	16dd/JJ	.	.	.	.	.	.	.	.	.	.	.
!	!	!LO:N:vis=8	!	!	!	!	!	!	!	!	!	!	!
.	.	16ee/LL	.	.	.	.	.	.	.	.	.	.	.
!	!	!LO:N:vis=8	!	!	!	!	!	!	!	!	!	!	!
.	.	16gg/JJ	.	.	.	.	.	.	.	.	.	.	.
!!LO:PB:g=original
=86	=86	=86	=86	=86	=86	=86	=86	=86	=86	=86	=86	=86	=86
1r	.	4ee/	1r	.	.	2G/	2E\	.	.	2cc/	2cc\	tre	.
.	.	8dd/L	.	.	.	.	.	.	.	.	.	.	.
.	.	8cc/J	.	.	.	.	.	.	.	.	.	.	.
.	.	4b-/	.	.	.	4G/	4G\	.	.	4dd/	4bn\	fi-	.
.	.	4cc/	.	.	.	4G/	4E\	.	.	4ee/	4cc\	-li-	.
=87	=87	=87	=87	=87	=87	=87	=87	=87	=87	=87	=87	=87	=87
1r	.	8dd/L	1r	.	.	2A/	2D\	.	.	2ff/	2dd\	-o-	.
.	.	8a/J	.	.	.	.	.	.	.	.	.	.	.
.	.	[4dd/	.	.	.	.	.	.	.	.	.	.	.
.	.	4dd/]	.	.	.	4G/	4GG\	.	.	4dd/	4bn\	-que	.
.	.	8cc/L	.	.	.	4E/	4AA\	.	.	4cc/	4a\	pro-	.
.	.	8a/J	.	.	.	.	.	.	.	.	.	.	.
=88	=88	=88	=88	=88	=88	=88	=88	=88	=88	=88	=88	=88	=88
*^	*	*	*^	*	*	*	*	*	*	*	*	*	*
4r	4ryy	.	4g/	4ryy	4r	.	.	2G/	2GG\	.	.	2dd/	2bn\	-ce-	.
4d/	4GG\	.	4ryy	2.g\	4bn/	.	.	.	.	.	.	.	.	.	.
4e/	4C\	.	2ryy	.	4cc/	.	.	4G/	4C\	.	.	4ee/	4cc\	-dit	.
4c/	4BB-X\	.	.	.	4ee/	.	.	4r	4ryy	.	.	4r	4r	.	.
*	*	*	*	*v	*v	*	*	*	*	*	*	*v	*v	*	*
*	*	*	*	*	*	*	*v	*v	*	*	*	*	*
=89	=89	=89	=89	=89	=89	=89	=89	=89	=89	=89	=89	=89
2c/	2AA\	.	2ff/	1f\	.	.	4F\	.	.	4f/	Qui	.
.	.	.	.	.	.	.	4A\	.	.	4a/	cum	.
2A/	2FF\	.	2cc/	.	.	.	4c\	.	.	4cc\	Pa-	.
.	.	.	.	.	.	.	8c\	.	.	8cc/	-tre	.
.	.	.	.	.	.	.	8A\	.	.	8a/	et	.
=90	=90	=90	=90	=90	=90	=90	=90	=90	=90	=90	=90	=90
4B-/	4BB-\	.	4dd/	2f\	.	.	4B-\	.	.	4b-\	Fi-	.
4A/	4FF\	.	4cc/	.	.	.	4A\	.	.	4a/	-li-	.
2G/	2C\	.	2cc/	2e\	.	.	2c\	.	.	2cc\	-o	.
=91	=91	=91	=91	=91	=91	=91	=91	=91	=91	=91	=91	=91
4B-/	4BB-\	.	4dd/	2f\	.	.	4d\	.	.	4dd\	si-	.
4A/	4FF\	.	4cc/	.	.	.	4c\	.	.	4cc\	-mul	.
2c/	2AA\	.	4ff/	2a\	.	.	4f\	.	.	4ff\	a-	.
.	.	.	4ee/	.	.	.	4e\	.	.	4ee\	-do-	.
=92	=92	=92	=92	=92	=92	=92	=92	=92	=92	=92	=92	=92
2B-/	2BB-\	.	2dd/	2.f\	.	.	2d\	.	.	2dd\	-ra-	.
4A/	4FF\	.	2cc/	.	.	.	4c\	.	.	4cc\	-tur	.
4A/	4F\	.	.	4f\	.	.	4F\	.	.	4f/	et	.
*	*	*	*v	*v	*	*	*	*	*	*	*	*
!!LO:LB:g=original
=93	=93	=93	=93	=93	=93	=93	=93	=93	=93	=93	=93
4A/	4A\ 4D\	.	4dd/ 4f/	.	.	8A\	.	.	8a/	con	.
.	.	.	.	.	.	8A\	.	.	8a/	glo-	.
4c\	4C\	.	4ee/ 4g/	.	.	8c\	.	.	8cc\	-ri-	.
.	.	.	.	.	.	8c\	.	.	8cc\	-fi-	.
4d\	4BB-\	.	4ff/ 4b-/	.	.	4d\	.	.	4dd\	-ca-	.
4c\	4F\	.	4cc/ 4a/	.	.	4c\	.	.	4cc\	-tur	.
=94	=94	=94	=94	=94	=94	=94	=94	=94	=94	=94	=94
2c\	2C\	.	2ee\ 2g\	.	.	4c\	.	.	4cc\	qui	.
.	.	.	.	.	.	4c\	.	.	4cc\	lo-	.
2ryy	2FF\	.	2ff\ 2a\	.	.	8.A\	.	.	8.a/	-cu-	.
.	.	.	.	.	.	16A\	.	.	16a/	-tus	.
.	.	.	.	.	.	4F\	.	.	4f/	est	.
=95	=95	=95	=95	=95	=95	=95	=95	=95	=95	=95	=95
*	*	*	*^	*	*	*	*	*	*	*	*
4B-/	4BB-\	.	4dd/	2.f\	.	.	4B-\	.	.	4b-\	per	.
4A/	4FF\	.	4cc/	.	.	.	8A\L	.	.	(8a/L	Pro-	.
.	.	.	.	.	.	.	8F\J	.	.	8f/J)	.	.
2G/	2C\	.	2cc/	.	.	.	2G\	.	.	2g/	-phe-	.
.	.	.	.	4e\	.	.	.	.	.	.	.	.
=96	=96	=96	=96	=96	=96	=96	=96	=96	=96	=96	=96	=96
*	*	*	*	*	*	*	*^	*	*	*^	*	*
2.A/	2.FF\	.	2.cc/	2.f\	.	.	4F/	4F\	.	.	4f/	4f\	-tas.	.
.	.	.	.	.	.	.	4F/	4F\	.	.	4cc/	4a\	Et	.
.	.	.	.	.	.	.	4F/	4F\	.	.	4a/	4f\	u-	.
4r	4ryy	.	4r	4ryy	.	.	4F/	4F\	.	.	4b-/	4g\	-nam	.
*v	*v	*	*	*	*	*	*	*	*	*	*	*	*	*
*	*	*v	*v	*	*	*	*	*	*	*	*	*	*
=97	=97	=97	=97	=97	=97	=97	=97	=97	=97	=97	=97	=97
1r	.	1r	.	.	2F/	2F\	.	.	2cc/	2a\	san-	.
.	.	.	.	.	4F/	4F\	.	.	4a/	4f\	-ctam	.
.	.	.	.	.	4F/	4D\	.	.	4b-/	4f\	Ca-	.
=98	=98	=98	=98	=98	=98	=98	=98	=98	=98	=98	=98	=98
1r	.	1r	.	.	4.E/	4.C\	.	.	4.cc/	4.g\	-tho-	.
.	.	.	.	.	8E/	8C\	.	.	8b-/	8g\	-li-	.
.	.	.	.	.	4F/	4D\	.	.	4a/	4f\	-cam	.
.	.	.	.	.	4G/	4E\	.	.	4cc/	4g\	et	.
!!LO:LB:g=original
=99	=99	=99	=99	=99	=99	=99	=99	=99	=99	=99	=99	=99
1r	.	1r	.	.	4F/	4D\	.	.	4dd/	4a\	A-	.
.	.	.	.	.	4G/	4C\	.	.	4ee/	4cc\	-po-	.
.	.	.	.	.	8A/	8F\	.	.	8ff/	8cc\	-sto-	.
.	.	.	.	.	8G/	8F\	.	.	8ee/	8b-\	-li-	.
.	.	.	.	.	8F/	8FF\	.	.	8dd/	8a\	-cam	.
.	.	.	.	.	8F/	8FF\	.	.	8cc/	8a\	ec-	.
=100	=100	=100	=100	=100	=100	=100	=100	=100	=100	=100	=100	=100
1r	.	1r	.	.	4D/	2GG\	.	.	4bn/	2g\	-cle-	.
.	.	.	.	.	4E/	.	.	.	2cc/	.	.	.
.	.	.	.	.	2D/	2GG\	.	.	.	2g\	.	.
.	.	.	.	.	.	.	.	.	4b/	.	-si-	.
=101	=101	=101	=101	=101	=101	=101	=101	=101	=101	=101	=101	=101
*	*	*^	*	*	*	*	*	*	*	*	*	*
2r	.	2r	2r	.	.	2E/	2C\	.	.	2cc/	2g\	-am	.
4r	.	4r	4r	.	.	4r	4ryy	.	.	4r	4ryy	.	.
.	.	.	.	f	.	.	.	.	.	.	.	.	.
4c\ 4C\	.	4cc/	4cc\	.	.	4c/	4c\	.	.	4cc/	4cc\	Con-	.
=102	=102	=102	=102	=102	=102	=102	=102	=102	=102	=102	=102	=102	=102
*^	*	*	*	*	*	*	*	*	*	*	*	*	*
1FF/	1c\	.	1a/	1ff\	.	.	4.A/	4.F\	.	.	4.ff/	4.cc\	-fi-	.
.	.	.	.	.	.	.	8A/	8F\	.	.	8ff/	8cc\	-te-	.
.	.	.	.	.	.	.	2A/	2F\	.	.	2ff/	2cc\	-or	.
*v	*v	*	*	*	*	*	*	*	*	*	*	*	*	*
*	*	*v	*v	*	*	*	*	*	*	*	*	*	*
=103	=103	=103	=103	=103	=103	=103	=103	=103	=103	=103	=103	=103
1r	.	1r	.	.	2G/	2C\	.	.	2ee/	2cc\	u-	.
.	.	.	.	.	4G/	4C\	.	.	4ee/	4cc\	-num	.
.	.	.	.	.	4G/	4C\	.	.	4ee/	4cc\	ba-	.
=104	=104	=104	=104	=104	=104	=104	=104	=104	=104	=104	=104	=104
1r	.	1r	.	.	2A/	2F\	.	.	2ff/	2cc\	-pti-	.
.	.	.	.	.	2A/	2F\	.	.	2cc/	2cc\	-sma	.
=105	=105	=105	=105	=105	=105	=105	=105	=105	=105	=105	=105	=105
1r	.	1r	.	.	4F/	4D\	.	.	4dd/	4a\	in	.
.	.	.	.	.	4F/	4D\	.	.	4dd/	4a\	re-	.
.	.	.	.	.	4.F/	4.D\	.	.	4.ff/	4.a\	-mis-	.
.	.	.	.	.	8F/	8C\	.	.	8ee/	8a\	-si-	.
!!LO:PB:g=original
=106	=106	=106	=106	=106	=106	=106	=106	=106	=106	=106	=106	=106
1r	.	1r	.	.	4F/	2BB-\	.	.	2dd/	4a\	-o-	.
.	.	.	.	.	4D/	.	.	.	.	4g\	.	.
.	.	.	.	.	2E/	2AA\	.	.	2cc#X/	2a\	-nem	.
=107	=107	=107	=107	=107	=107	=107	=107	=107	=107	=107	=107	=107
1r	.	1r	.	.	4G/	4GG\	.	.	4dd/	4b-\	pec-	.
.	.	.	.	.	8G/L	4GG\	.	.	4dd/	4b-\	-ca-	.
.	.	.	.	.	8F/J	.	.	.	.	.	.	.
.	.	.	.	.	2E/	2AA\	.	.	2cc#X/	2a\	-to-	.
=108	=108	=108	=108	=108	=108	=108	=108	=108	=108	=108	=108	=108
1r	.	1r	.	.	1F/	1D\	.	.	1dd/	1a\	-rum.	.
=109||	=109||	=109||	=109||	=109||	=109||	=109||	=109||	=109||	=109||	=109||	=109||	=109||
*^	*	*^	*	*	*	*	*	*	*	*	*	*
*	*^	*	*	*	*	*	*	*	*	*	*	*	*	*
!	!	!	!	!	!	!	!	!	!	!	!	!LO:TX:a:t=Piu mosso	!	!	!
4A/	[2F\	2ryy	.	4f/	2f\	.	.	4F/	4F\	.	.	4f/	4f\	Et	.
4c/	.	.	.	4a/	.	.	.	4A/	4A\	.	.	4a/	4a\	ex-	.
4f/	2F\]	2FF\	.	4cc/	2a\	.	.	4c/	4c\	.	.	4cc/	4cc\	-pe-	.
4c/	.	.	.	4ff/	.	.	.	4A/	4F\	.	.	4ff/	4cc\	-cto	.
*	*v	*v	*	*	*	*	*	*	*	*	*	*	*	*	*
=110	=110	=110	=110	=110	=110	=110	=110	=110	=110	=110	=110	=110	=110	=110
4B-/	2G\ 2GG\	.	4dd/	2g\	.	.	4G/	4G\	.	.	4dd/	4b-\	in	.
8c/L	.	.	8ee/L	.	.	.	4G/	4G\	.	.	(8ee/L	4b-\	re-	.
8d/J	.	.	8ff/J	.	.	.	.	.	.	.	8ff/J)	.	.	.
4e/	4C\	.	4gg/	4cc\	.	.	4E/	4C\	.	.	4gg/	4b-\	-mis-	.
4d/	4D\	.	4ff/	4a\	.	.	4F/	4D\	.	.	4ff/	4a\	-si-	.
=111	=111	=111	=111	=111	=111	=111	=111	=111	=111	=111	=111	=111	=111	=111
2d/	2BB-\	.	2ff/	2b-\	.	.	2B-/	2BB-\	.	.	2ff/	2dd\	-o-	.
2c/	2C\	.	2ee/	2g\	.	.	2G/	2C\	.	.	2ee/	2cc\	-nem	.
!!LO:LB:g=original
=112	=112	=112	=112	=112	=112	=112	=112	=112	=112	=112	=112	=112	=112	=112
!	!	!	!	!	!	!	!	!	!	!LO:DY:rj:b	!	!	!	!
2B-/	2GG\	.	1dd/	2g\	.	.	2G/	2G\	.	p	2dd/	2b-\	mor-	.
2A/	2D\	.	.	2f\	.	.	2F/	2D\	.	.	2dd/	2a\	-tu-	.
*v	*v	*	*	*	*	*	*	*	*	*	*	*	*	*
*	*	*v	*v	*	*	*	*	*	*	*	*	*	*
=113	=113	=113	=113	=113	=113	=113	=113	=113	=113	=113	=113	=113
1B-\ 1BB-\	.	1dd/ 1f/	.	.	1F/	1BB-\	.	.	1dd/	1b-\	-o-	.
=114	=114	=114	=114	=114	=114	=114	=114	=114	=114	=114	=114	=114
!	!	!	!	!	!	!	!	!	!	!LO:N:vis=1.	!	!
2.G\ 2.C\	.	2.cc/ 2.e/	.	.	2.E/	2.C\	.	.	2.cc/	2.g\	-rum	.
!	!	!	!LO:DY:a	!	!	!	!	!	!	!	!	!
4C/	f	4ryy	f	.	4C/	4ryy	Et	.	4r	4ryy	.	.
=115	=115	=115	=115	=115	=115	=115	=115	=115	=115	=115	=115	=115
*	*	*^	*	*	*	*	*	*	*	*	*^	*
4E/	.	4r	1rd	.	.	(>4E/	2.ryy	vi-	.	4r	2.ryy	.	.	.
*	*	*	*	*	*	*	*	*	*	*	*	*	*above	*
4G/	.	4g/	.	.	.	4G/)	.	.	.	4g/	.	.	Et	.
4F/	.	4a/	.	.	.	4F/	.	-tam	.	(>4a/	.	.	vi-	.
4G\ 4C\	.	4cc/ 4e/	.	.	.	4E/	4C\	ven-	.	4cc/)	4g\	ven-	.	.
*	*	*v	*v	*	*	*	*	*	*	*	*	*	*	*
=116	=116	=116	=116	=116	=116	=116	=116	=116	=116	=116	=116	=116	=116
*^	*	*	*	*	*	*	*	*	*	*	*	*	*
2A/	4F\	.	4cc/ 4f/	.	.	(4F/	4F\	-tu-	.	4cc/	4a\	-tu-	-tam	.
.	4D\	.	8dd/L 8f/	.	.	4A/)	4D\	.	.	(>8dd/L	4dd\	-ri	ven-	.
.	.	.	8ee/J 8g/	.	.	.	.	.	.	8ee/J)	.	.	.	.
4d/	4BB-\	.	4ff/ 4b-/	.	.	(4B-/	4BB-\	-ri	.	4ff/	(4dd\	sae-	-tu-	.
4c/	4C\	.	4ee/ 4g/	.	.	4G/)	4C\	.	.	4ee/	(4cc\)	.	-ri	.
!!LO:LB:g=original
=117	=117	=117	=117	=117	=117	=117	=117	=117	=117	=117	=117	=117	=117	=117
*	*	*	*^	*	*	*	*	*	*	*	*	*	*	*
4A/	4D\	.	4dd/	4f\	.	.	4F/	4D\	sae-	.	4dd/	4a\)	.	sae-	.
4c\	4AA\	.	8ee/L	4a\	.	.	4A/	4A\	-cu-	.	(8ee/L	4cc\	-cu-	-cu-	.
.	.	.	8ff/J	.	.	.	.	.	.	.	8ff/J)	.	.	.	.
2d\	2GG\	.	2gg/	2b-\	.	.	2B-/	2G\	-li	.	2gg/	2dd\	-li	-li	.
*	*	*	*v	*v	*	*	*	*	*	*	*	*	*	*	*
=118	=118	=118	=118	=118	=118	=118	=118	=118	=118	=118	=118	=118	=118	=118
1c/	2C\	.	2ee/ 2g/	.	.	2G/	2C\	.	.	2ee/	2cc\	A-	A-	.
.	2F\	.	2ff/ 2a/	.	.	2A/	2F\	.	.	2ff/	2cc\	-men	-men	.
=119	=119	=119	=119	=119	=119	=119	=119	=119	=119	=119	=119	=119	=119	=119
[1B-/	1BB-\	.	1dd/ 1f/	.	.	1F/	1BB-\	.	.	1dd/	[1b-\	A-	A-	.
=120	=120	=120	=120	=120	=120	=120	=120	=120	=120	=120	=120	=120	=120	=120
2B-/]	[1FF\	.	[1cc/ [1f/	.	.	[1F/	[1FF\	.	.	[1cc/	2b-\]	.	-men	.
4A/	.	.	.	.	.	.	.	.	.	.	4a\	.	.	.
4G/	.	.	.	.	.	.	.	.	.	.	4g\	.	.	.
=121	=121	=121	=121	=121	=121	=121	=121	=121	=121	=121	=121	=121	=121	=121
1A/	1FF\]	.	1cc/] 1f/]	.	.	1F/]	1FF\]	.	.	1cc/]	1a\	-men	-men	.
*	*	*	*	*	*	*v	*v	*	*	*	*	*v	*v	*
*v	*v	*	*	*	*	*	*	*	*v	*v	*	*
==	==	==	==	==	==	==	==	==	==	==
*-	*-	*-	*-	*-	*-	*-	*-	*-	*-	*-
!!!system-decoration: [(s1,s2)]{(s3,s4)]
!!!RDF**kern: > = above
!!!RDF**kern: < = below
!!!EED: Leszek Kubiak
!!!EEV: 2021-01-27
!!!ENC: Andrzej Gręziak
!!!END: 2021-01-24
